X: 1624
T: Rûhunda Ölen Nağmede
C: Sadi Işılay
O: Turkey
F: http://compmusic.upf.edu/node/140
N: segah--sarki--senginsemai--ruhunda_olen--sadi_isilay
N: makam= segah
N: form= sarki
N: usul= senginsemai = 6/4
M: 6/4
L: 1/16
K: C _1/4B _1/4e ^f 
Q: 1/4=60
%%MIDI tuningsystem comma53
B2^AB c2BA A2GA (3cBA(3GF^E F4 z4  | \
w:  ARANAĞME  | 
FG^AB cde=f edde dcBc d4 z4  | 
w:   | 
d2(3gfg e2(3=fef d2(3ede c2(3dcd B4 cBAG  | 
w:   | 
B3/2c/d3/2e/ f2ed d3c (3edccB B4 z4  | \
w:   | 
B2^AB c2BA A2GA (3cBA(3GF^E F4 z4  | 
w:  ARANAĞME  | 
FG^AB cde=f edde dcBc d4 z4  | d2(3gfg e2(3=fef d2(3ede c2(3dcd B4 cBAG  | 
w:   |   | 
B3/2c/d3/2e/ f2ed d3c (3edccB B4 z4  | \
w:   | 
B4 ^A4 B4 c2de d3/2c/BA G4  | 
w:  Ru hun da  ö *  *  len   | 
B4 c4 d2e2 c2d2 c6{B}B2  | d4 c4 B4 ^A2{c}BA G4 {e}d3/2=f/ed  | \
w:  nağ *  me *  de  *  sev  |  da  *  *  se *  si  *  var   | 
d8 d3/2e/=f3/2e/ dcB^A B4 z4  | 
w:  mı   SAZ  | 
B4 ^A4 B4 c2de d3/2c/BA G4  | B4 c4 d2e2 c2d2 c6{B}B2  | \
w:  Ru hun da  ö *  *  len   |  nağ *  me *  de  *  sev  | 
d4 c4 B4 ^A2{c}BA G4 {e}d3/2=f/ed  | 
w:  da  *  *  se *  si  *  var   | 
d8 d3/2e/=f3/2e/ d3/2c/B3/2c/ d4 z4  | \
w:  mı   SAZ  | 
g2=fe d2cB ^A2B2 c2d2 e6{f}ed  | 
w:  An *  *  lat  *  *  ba *  na  *  ey   | 
z2{g}=f2 e2d2 d2{e}dc B2B^A G4 c/B/A/G/F/^E/F  | \
w:  *  sev *  *  gi *  *  *  li  *  *  aş  | 
G2B2 ^A2c2 B2d2 g2=fe d2{e}dc (3edccB  | 
w:  kın  *  *  *  bu  *  ka *  *  dar   | 
B8 d3/2e/=f3/2e/ d3/2c/B3/2c/ d4 z4  | \
w:  mı   SAZ  | 
g2=fe d2cB ^A2B2 c2d2 e6{f}ed  | 
w:  An *  *  lat  *  *  ba *  na  *  ey   | 
z2{g}=f2 e2d2 d2{e}dc B2B^A G4 c/B/A/G/F/^E/F  | \
w:  *  sev *  *  gi *  *  *  li  *  *  aş  | 
G2B2 ^A2c2 B2d2 g2=fe d2{e}dc (3edccB  | 
w:  kın  *  *  *  bu  *  ka *  *  dar   | 
B8 =f3_3/4g f3/2e/de f4 z4  | =f/_2/4e/f/_3/4g/f/e/d g/f/g/a/g/f/e f_d'c'_b agfe f4 z4  | 
w:  mı   SAZ  |  Kum *  *  *  *  *  *  ral  *  *  *  *  *  *  sa *  *  *  çı *  *  *  nın   | 
=f2_3/4g4gf f3e fed^c d4 z4  | d2=fe dcB/^A/B c4 d4 d_2/4ef_7/8g (3ggfed  | 
w:  tel *  *  *  le *  ri *  *  *  hic  |  râ *  *  *  *  *  *  *  nı  sa rar   | 
_2/4e4 z4 d_1/4e=f_7/8g (3ggf_2/4ed e4 z4  | \
w:  mı   SAZ  | 
d/c/d/e/dc B4 c4 d2e2 (3=fed(3cB^A B4  | 
w:  Kum *  *  *  *  *  ral  sa çı *  nın   | 
z2d2 ^c2d2 e2{g}=fe eddc d4 z4  | \
w:  tel *  *  le *  *  *  ri  *  *  *  hic  | 
d4 c4 B4 ^A2BA G4 d2{=f}ed  | 
w:  râ *  *  nı  sa *  rar   | 
d8 d3/2e/=f3/2e/ d3/2c/B3/2c/ d4 z4  | \
w:  mı   SAZ  | 
g2=fe d2cB ^A2B2 c2d2 e6{f}ed  | 
w:  An *  *  lat  *  *  ba *  na  *  ey   | 
z2{g}=f2 e2d2 d2{e}dc B2B^A G4 c/B/A/G/F/^E/F  | \
w:  *  sev *  *  gi *  *  *  li  *  *  aş  | 
G2B2 ^A2c2 B2d2 g2=fe d2{e}dc (3edccB  | 
w:  kın  *  *  *  bu  *  ka *  *  dar   | 
B8 d3/2e/=f3/2e/ d3/2c/B3/2c/ d4 z4  | \
w:  mı   SAZ  | 
g2=fe d2cB ^A2B2 c2d2 e6{f}ed  | 
w:  An *  *  lat  *  *  ba *  na  *  ey   | 
z2{g}=f2 e2d2 d2{e}dc B2B^A G4 c/B/A/G/F/^E/F  | \
w:  *  sev *  *  gi *  *  *  li  *  *  aş  | 
G2B2 ^A2c2 B2d2 g2=fe d2{e}dc (3edccB  | 
w:  kın  *  *  *  bu  *  ka *  *  dar   | 
B8 |
w:  mı    | 


